icon/hi/table-outline.svg

<svg viewBox="0 0 24 24" fill="none" xmlns="http://www.w3.org/2000/svg" height="1em" width="1em">
  <path d="M3 10H21M3 14H21M12 10V18M5 18H19C20.1046 18 21 17.1046 21 16V8C21 6.89543 20.1046 6 19 6H5C3.89543 6 3 6.89543 3 8V16C3 17.1046 3.89543 18 5 18Z" stroke="#374151" stroke-width="2" stroke-linecap="round" stroke-linejoin="round"/>
</svg>

<svg width="24" height="24" fill="none" xmlns="http://www.w3.org/2000/svg"><path d="M3 10h18M3 14h18m-9-4v8m-7 0h14a2 2 0 0 0 2-2V8a2 2 0 0 0-2-2H5a2 2 0 0 0-2 2v8a2 2 0 0 0 2 2Z" stroke="#374151" stroke-width="2" stroke-linecap="round" stroke-linejoin="round"/></svg>
